X: 28062
T: Mr Beveridge's Maggot
R: three-two
M: 3/2
K: Gminor
g4 ^f2 =ef g4|d2cB ABc2B2G2|g4a2 ga b4|f2ed cde2d2B2:|
d2f4f2f2ed|c2e4e2e2dc|B2d4d2d2cB|ABc2B2AG^F2D2|
d2a4a2a2d2|b2a2g2^f2g4|def2Bcd2ABc2|B2G2G2^F2G4:|

